X: 13861
T: Fowler On The Moor, The
R: hornpipe
M: 4/4
K: Dmixolydian
M:12/8
BA|G2E E3 c2A B2G|AcA G2E A2c B2A|
G2E E3 c2A B2G|AcA G2E D3 D2E|
G2E E3 c2A B2G|AcA G2E A2c B2A|
G2A B2c d2G B2G|AGE G2E D3 D2||
E|G2A B2c d2G B2G|AcA G2E A2c B2A|
G2A B2c d2G B2G|AGE G2E D3 D2c||

